images/icons/slack.svg

<svg fill="none" height="24" viewBox="0 0 24 24" width="24" xmlns="http://www.w3.org/2000/svg"><path d="m5.02793 15.1508c0 1.4078-1.13966 2.514-2.51396 2.514-1.37431 0-2.51397-1.1397-2.51397-2.514s1.13966-2.514 2.51397-2.514h2.51396z" fill="#e01e5a"/><path d="m6.30164 15.1508c0-1.4078 1.13966-2.514 2.51396-2.514s2.514 1.1397 2.514 2.514v6.3352c0 1.4078-1.1397 2.514-2.514 2.514s-2.51396-1.1397-2.51396-2.514z" fill="#e01e5a"/><path d="m8.8156 5.02793c-1.40782 0-2.51396-1.13966-2.51396-2.51396 0-1.37431 1.13966-2.51397 2.51396-2.51397s2.514 1.13966 2.514 2.51397v2.51396z" fill="#36c5f0"/><path d="m8.81564 6.3017c1.40786 0 2.51396 1.13966 2.51396 2.51396 0 1.37434-1.1397 2.51394-2.51396 2.51394h-6.30167c-1.40782 0-2.51397-1.1396-2.51397-2.51394 0-1.3743 1.13966-2.51396 2.51397-2.51396z" fill="#36c5f0"/><path d="m18.9385 8.84917c0-1.40782 1.1396-2.51396 2.5139-2.51396 1.4079 0 2.514 1.13966 2.514 2.51396 0 1.37433-1.1397 2.51393-2.514 2.51393h-2.5139z" fill="#2eb67d"/><path d="m17.6648 8.84916c0 1.40784-1.1397 2.51394-2.514 2.51394-1.4078 0-2.514-1.1396-2.514-2.51394v-6.33519c0-1.40782 1.1397-2.51397 2.514-2.51397 1.4078 0 2.514 1.13966 2.514 2.51397z" fill="#2eb67d"/><g fill="#ecb22e"><path d="m15.1508 18.9385c1.4078 0 2.514 1.1397 2.514 2.514 0 1.4078-1.1397 2.514-2.514 2.514-1.4078 0-2.514-1.1397-2.514-2.514v-2.514z"/><path d="m15.1508 17.6983c-1.4078 0-2.514-1.1396-2.514-2.5139s1.1397-2.514 2.514-2.514h6.3352c1.4078 0 2.514 1.1397 2.514 2.514s-1.1397 2.5139-2.514 2.5139z"/></g></svg>

<svg width="24" height="24" viewBox="0 0 24 24" fill="none" xmlns="http://www.w3.org/2000/svg">
<path d="M5.02793 15.1508C5.02793 16.5586 3.88827 17.6648 2.51397 17.6648C1.13966 17.6648 0 16.5251 0 15.1508C0 13.7765 1.13966 12.6368 2.51397 12.6368H5.02793V15.1508Z" fill="#E01E5A"/>
<path d="M6.30164 15.1508C6.30164 13.743 7.4413 12.6368 8.8156 12.6368C10.1899 12.6368 11.3296 13.7765 11.3296 15.1508V21.486C11.3296 22.8938 10.1899 24 8.8156 24C7.4413 24 6.30164 22.8603 6.30164 21.486V15.1508Z" fill="#E01E5A"/>
<path d="M8.8156 5.02793C7.40778 5.02793 6.30164 3.88827 6.30164 2.51397C6.30164 1.13966 7.4413 0 8.8156 0C10.1899 0 11.3296 1.13966 11.3296 2.51397V5.02793H8.8156Z" fill="#36C5F0"/>
<path d="M8.81564 6.3017C10.2235 6.3017 11.3296 7.44136 11.3296 8.81566C11.3296 10.19 10.1899 11.3296 8.81564 11.3296H2.51397C1.10615 11.3296 0 10.19 0 8.81566C0 7.44136 1.13966 6.3017 2.51397 6.3017H8.81564Z" fill="#36C5F0"/>
<path d="M18.9385 8.84917C18.9385 7.44135 20.0781 6.33521 21.4524 6.33521C22.8603 6.33521 23.9664 7.47487 23.9664 8.84917C23.9664 10.2235 22.8267 11.3631 21.4524 11.3631H18.9385V8.84917Z" fill="#2EB67D"/>
<path d="M17.6648 8.84916C17.6648 10.257 16.5251 11.3631 15.1508 11.3631C13.743 11.3631 12.6368 10.2235 12.6368 8.84916V2.51397C12.6368 1.10615 13.7765 0 15.1508 0C16.5586 0 17.6648 1.13966 17.6648 2.51397V8.84916Z" fill="#2EB67D"/>
<path d="M15.1508 18.9385C16.5586 18.9385 17.6648 20.0782 17.6648 21.4525C17.6648 22.8603 16.5251 23.9665 15.1508 23.9665C13.743 23.9665 12.6368 22.8268 12.6368 21.4525V18.9385H15.1508Z" fill="#ECB22E"/>
<path d="M15.1508 17.6983C13.743 17.6983 12.6368 16.5587 12.6368 15.1844C12.6368 13.8101 13.7765 12.6704 15.1508 12.6704H21.486C22.8938 12.6704 24 13.8101 24 15.1844C24 16.5587 22.8603 17.6983 21.486 17.6983H15.1508Z" fill="#ECB22E"/>
</svg>
